X:0323
M:6/8
L:1/8
Q:3/8=120
K:G
     d2c BAG|c2A B2G|d2c BAG|A2D    G3:|
     g2d BGB|cAc BAG|g2d BGB|ADF [1 G3:|\
                                 [2 G2||
z   |g2G g2G|ABA B2G|g2G g2G|ABA    G2:|

